X:6
T:Bill Collin's
Z: id:dc-jig-152
M:6/8
L:1/8
K:D Major
A|d2A BAB|def a3|aba f2e|dBB gfe|!
d2A BAB|def a3|aba f2e|fdc d2:|!
e|faa fab|afe fef|aba f2e|dBB gfe|!
d2A BAB|def a3|aba f2e|fdc d2:|!

